svg/icon/icp.svg

<?xml version="1.0" encoding="UTF-8"?>
<svg xmlns="http://www.w3.org/2000/svg" xmlns:xlink="http://www.w3.org/1999/xlink" width="32px" height="32px" viewBox="0 0 32 32" version="1.1">
<g id="surface1">
<path style=" stroke:none;fill-rule:nonzero;fill:rgb(16.078432%,66.666669%,88.235295%);fill-opacity:1;" d="M 11 9.5 C 12.710938 10.488281 14.175781 11.527344 15.5 13 C 16.742188 12.46875 17.519531 11.980469 18.46875 11 C 20.015625 9.5 21.34375 9.070312 23.46875 8.84375 C 25.957031 9.097656 27.484375 9.929688 29.15625 11.78125 C 30.574219 13.832031 30.832031 15.53125 30.5 18 C 29.148438 20.652344 27.582031 21.707031 25 23 C 22.414062 23.371094 21.003906 22.566406 18.914062 21.195312 C 18.027344 20.519531 17.265625 19.808594 16.5 19 C 15.257812 19.53125 14.480469 20.019531 13.53125 21 C 11.984375 22.5 10.65625 22.929688 8.53125 23.15625 C 6.042969 22.902344 4.515625 22.070312 2.84375 20.21875 C 1.425781 18.167969 1.167969 16.46875 1.5 14 C 3.566406 9.945312 6.605469 8.53125 11 9.5 Z M 5 13.5 C 4.296875 14.90625 4.375 15.945312 4.5 17.5 C 4.960938 18.710938 4.960938 18.710938 6 19.5 C 8.15625 20.152344 9.109375 20.203125 11.125 19.15625 C 12.308594 18.160156 13.167969 17.292969 14 16 C 12.453125 14.363281 11.023438 13.011719 9 12 C 7.195312 12 6.46875 12.496094 5 13.5 Z M 19.5 14 C 18.582031 15.054688 18.582031 15.054688 18 16 C 19.539062 17.628906 20.941406 19.074219 23 20 C 24.625 19.960938 25.34375 19.613281 26.65625 18.65625 C 27.757812 17.144531 27.765625 16.335938 27.5 14.5 C 27.039062 13.289062 27.039062 13.289062 26 12.5 C 23.113281 11.628906 21.777344 12.085938 19.5 14 Z M 19.5 14 "/>
<path style=" stroke:none;fill-rule:nonzero;fill:rgb(92.54902%,11.764706%,47.450981%);fill-opacity:1;" d="M 8.5 11.5 C 8.199219 11.714844 7.902344 11.933594 7.59375 12.15625 C 7.234375 12.433594 6.871094 12.714844 6.5 13 C 6.066406 13.324219 6.066406 13.324219 5.625 13.65625 C 4.675781 14.9375 4.839844 15.949219 5 17.5 C 5.867188 19.152344 5.867188 19.152344 7.625 19.46875 C 9.933594 19.507812 10.722656 18.921875 12.5 17.5 C 12.890625 17.210938 13.285156 16.921875 13.6875 16.625 C 13.957031 16.417969 14.222656 16.210938 14.5 16 C 14.996094 16.496094 15.488281 16.988281 16 17.5 C 15.054688 19.820312 13.480469 21.472656 11.28125 22.65625 C 9.09375 23.242188 7.5625 23.214844 5.4375 22.40625 C 3.601562 21.25 2.46875 19.9375 1.5 18 C 1.207031 14.378906 1.207031 14.378906 2.4375 12.78125 C 4.527344 11.246094 5.953125 11.457031 8.5 11.5 Z M 8.5 11.5 "/>
<path style=" stroke:none;fill-rule:nonzero;fill:rgb(94.117647%,35.294119%,14.117648%);fill-opacity:1;" d="M 26.5625 9.59375 C 28.398438 10.75 29.53125 12.0625 30.5 14 C 30.734375 17.667969 30.734375 17.667969 29.84375 18.9375 C 27.3125 20.625 27.3125 20.625 25.40625 20.5625 C 24.777344 20.542969 24.148438 20.519531 23.5 20.5 C 23.800781 20.285156 24.097656 20.066406 24.40625 19.84375 C 24.765625 19.566406 25.128906 19.285156 25.5 19 C 25.789062 18.785156 26.078125 18.566406 26.375 18.34375 C 27.324219 17.0625 27.160156 16.050781 27 14.5 C 26.132812 12.847656 26.132812 12.847656 24.375 12.53125 C 22.066406 12.492188 21.277344 13.078125 19.5 14.5 C 19.109375 14.789062 18.714844 15.078125 18.3125 15.375 C 17.910156 15.683594 17.910156 15.683594 17.5 16 C 17.003906 15.503906 16.511719 15.011719 16 14.5 C 16.945312 12.179688 18.519531 10.527344 20.71875 9.34375 C 22.90625 8.757812 24.4375 8.785156 26.5625 9.59375 Z M 26.5625 9.59375 "/>
<path style=" stroke:none;fill-rule:nonzero;fill:rgb(95.686275%,68.627453%,25.098041%);fill-opacity:1;" d="M 27.5 11 C 28.644531 11.457031 29.367188 11.828125 30.125 12.8125 C 30.699219 14.632812 30.652344 16.085938 30.5 18 C 29.648438 19.214844 28.761719 19.660156 27.5 20.5 C 26.476562 20.597656 26.476562 20.597656 25.40625 20.5625 C 24.777344 20.542969 24.148438 20.519531 23.5 20.5 C 23.800781 20.285156 24.097656 20.066406 24.40625 19.84375 C 24.765625 19.566406 25.128906 19.285156 25.5 19 C 25.789062 18.785156 26.078125 18.566406 26.375 18.34375 C 27.328125 17.054688 27.160156 16.058594 27 14.5 C 26.550781 13.347656 26.550781 13.347656 26 12.5 C 26.496094 12.003906 26.988281 11.511719 27.5 11 Z M 27.5 11 "/>
<path style=" stroke:none;fill-rule:nonzero;fill:rgb(40.392157%,14.901961%,51.372552%);fill-opacity:1;" d="M 8.5 11.5 C 8.199219 11.714844 7.902344 11.933594 7.59375 12.15625 C 6.070312 13.332031 5.070312 14.394531 4 16 C 3.671875 16 3.339844 16 3 16 C 2.835938 16.496094 2.671875 16.988281 2.5 17.5 C 2.171875 17.5 1.839844 17.5 1.5 17.5 C 1.253906 14.3125 1.253906 14.3125 2.4375 12.8125 C 4.511719 11.226562 5.945312 11.457031 8.5 11.5 Z M 8.5 11.5 "/>
<path style=" stroke:none;fill-rule:nonzero;fill:rgb(49.411765%,14.117648%,50.588238%);fill-opacity:1;" d="M 4 15.5 C 4.144531 15.800781 4.289062 16.097656 4.4375 16.40625 C 5.289062 18.066406 5.929688 18.953125 7.5 20 C 7.003906 20.246094 7.003906 20.246094 6.5 20.5 C 6.335938 20.996094 6.171875 21.488281 6 22 C 4.433594 21.832031 4 21.5 2.90625 20.3125 C 2 19 2 19 1.5 17.5 C 2.324219 16.839844 3.148438 16.179688 4 15.5 Z M 4 15.5 "/>
<path style=" stroke:none;fill-rule:nonzero;fill:rgb(94.901961%,41.176471%,15.686275%);fill-opacity:1;" d="M 26.5625 9.96875 C 27.035156 10.144531 27.511719 10.320312 28 10.5 C 27.503906 11.160156 27.011719 11.820312 26.5 12.5 C 25.179688 12.335938 23.859375 12.171875 22.5 12 C 22.828125 11.835938 23.160156 11.671875 23.5 11.5 C 23.664062 11.003906 23.828125 10.511719 24 10 C 25 9.5 25 9.5 26.5625 9.96875 Z M 26.5625 9.96875 "/>
<path style=" stroke:none;fill-rule:nonzero;fill:rgb(34.901962%,14.901961%,51.764709%);fill-opacity:1;" d="M 6 12 C 5.359375 12.855469 4.691406 13.6875 4 14.5 C 3.671875 14.5 3.339844 14.5 3 14.5 C 2.835938 14.996094 2.671875 15.488281 2.5 16 C 2.171875 16 1.839844 16 1.5 16 C 1.59375 14.59375 1.59375 14.59375 2 13 C 4.03125 11.34375 4.03125 11.34375 6 12 Z M 6 12 "/>
<path style=" stroke:none;fill-rule:nonzero;fill:rgb(97.254902%,60.000002%,20.392157%);fill-opacity:1;" d="M 27.5 11 C 28.160156 11.328125 28.820312 11.660156 29.5 12 C 29.34375 12.9375 29.34375 12.9375 29 14 C 28.503906 14.328125 28.011719 14.660156 27.5 15 C 27.003906 14.175781 26.511719 13.351562 26 12.5 C 26.496094 12.003906 26.988281 11.511719 27.5 11 Z M 27.5 11 "/>
<path style=" stroke:none;fill-rule:nonzero;fill:rgb(72.549021%,12.941177%,49.019608%);fill-opacity:1;" d="M 4.5 19 C 5.503906 19.144531 6.503906 19.308594 7.5 19.5 C 6.757812 20.738281 6.757812 20.738281 6 22 C 5.339844 21.835938 4.679688 21.671875 4 21.5 C 4 19.5 4 19.5 4.5 19 Z M 4.5 19 "/>
<path style=" stroke:none;fill-rule:nonzero;fill:rgb(84.705883%,12.156863%,47.843137%);fill-opacity:1;" d="M 6.5 20 C 7.160156 20 7.820312 20 8.5 20 C 8.335938 20.660156 8.171875 21.320312 8 22 C 7.339844 22.164062 6.679688 22.328125 6 22.5 C 6.164062 21.675781 6.328125 20.851562 6.5 20 Z M 6.5 20 "/>
<path style=" stroke:none;fill-rule:nonzero;fill:rgb(59.607846%,13.725491%,49.411765%);fill-opacity:1;" d="M 4 17.5 C 4.328125 17.5 4.660156 17.5 5 17.5 C 5.164062 17.996094 5.328125 18.488281 5.5 19 C 4.261719 19.742188 4.261719 19.742188 3 20.5 C 3 18.5 3 18.5 4 17.5 Z M 4 17.5 "/>
<path style=" stroke:none;fill-rule:nonzero;fill:rgb(96.078432%,49.019608%,17.647059%);fill-opacity:1;" d="M 26.5 10 C 26.996094 10.164062 27.488281 10.328125 28 10.5 C 27.375 11.5 27.375 11.5 26.5 12.5 C 25.839844 12.5 25.179688 12.5 24.5 12.5 C 24.5 12.171875 24.5 11.839844 24.5 11.5 C 24.996094 11.5 25.488281 11.5 26 11.5 C 26.164062 11.003906 26.328125 10.511719 26.5 10 Z M 26.5 10 "/>
<path style=" stroke:none;fill-rule:nonzero;fill:rgb(29.411766%,23.921569%,58.039218%);fill-opacity:1;" d="M 4.5 11.5 C 4.828125 11.664062 5.160156 11.828125 5.5 12 C 5.003906 12.164062 4.511719 12.328125 4 12.5 C 3.835938 12.996094 3.671875 13.488281 3.5 14 C 2.46875 14.59375 2.46875 14.59375 1.5 15 C 1.59375 14.09375 1.59375 14.09375 2 13 C 3.21875 12.09375 3.21875 12.09375 4.5 11.5 Z M 4.5 11.5 "/>
</g>
</svg>

<svg xmlns="http://www.w3.org/2000/svg" width="32" height="32" viewBox="0 0 32 32"><path d="M11 9.5c1.71.988 3.176 2.027 4.5 3.5 1.242-.531 2.02-1.02 2.969-2 1.547-1.5 2.875-1.93 5-2.156 2.488.254 4.015 1.086 5.687 2.937 1.418 2.051 1.676 3.75 1.344 6.219-1.352 2.652-2.918 3.707-5.5 5-2.586.371-3.996-.434-6.086-1.805A20 20 0 0 1 16.5 19c-1.242.531-2.02 1.02-2.969 2-1.547 1.5-2.875 1.93-5 2.156-2.488-.254-4.015-1.086-5.687-2.937C1.426 18.168 1.168 16.469 1.5 14 3.566 9.945 6.605 8.531 11 9.5m-6 4c-.703 1.406-.625 2.445-.5 4 .46 1.21.46 1.21 1.5 2 2.156.652 3.11.703 5.125-.344C12.309 18.16 13.168 17.293 14 16c-1.547-1.637-2.977-2.988-5-4-1.805 0-2.531.496-4 1.5m14.5.5c-.918 1.055-.918 1.055-1.5 2 1.54 1.629 2.941 3.074 5 4 1.625-.04 2.344-.387 3.656-1.344 1.102-1.511 1.11-2.32.844-4.156-.46-1.21-.46-1.21-1.5-2-2.887-.871-4.223-.414-6.5 1.5m0 0" style="stroke:none;fill-rule:nonzero;fill:#29aae1;fill-opacity:1"/><path d="M8.5 11.5c-.3.215-.598.434-.906.656L6.5 13c-.434.324-.434.324-.875.656C4.675 14.937 4.84 15.95 5 17.5c.867 1.652.867 1.652 2.625 1.969 2.309.039 3.098-.547 4.875-1.969.39-.29.785-.578 1.188-.875.269-.207.535-.414.812-.625l1.5 1.5c-.945 2.32-2.52 3.973-4.719 5.156-2.187.586-3.719.559-5.844-.25C3.603 21.25 2.47 19.938 1.5 18c-.293-3.621-.293-3.621.938-5.219 2.09-1.535 3.515-1.324 6.062-1.281m0 0" style="stroke:none;fill-rule:nonzero;fill:#ec1e79;fill-opacity:1"/><path d="M26.563 9.594C28.398 10.75 29.53 12.063 30.5 14c.234 3.668.234 3.668-.656 4.938-2.532 1.687-2.532 1.687-4.438 1.625-.629-.02-1.258-.043-1.906-.063.3-.215.598-.434.906-.656L25.5 19c.29-.215.578-.434.875-.656.95-1.282.785-2.293.625-3.844-.867-1.652-.867-1.652-2.625-1.969-2.309-.039-3.098.547-4.875 1.969-.39.29-.785.578-1.187.875L17.5 16 16 14.5c.945-2.32 2.52-3.973 4.719-5.156 2.187-.586 3.718-.559 5.843.25m0 0" style="stroke:none;fill-rule:nonzero;fill:#f05a24;fill-opacity:1"/><path d="M27.5 11c1.145.457 1.867.828 2.625 1.813.574 1.82.527 3.273.375 5.187-.852 1.215-1.738 1.66-3 2.5-1.023.098-1.023.098-2.094.063-.629-.02-1.258-.043-1.906-.063.3-.215.598-.434.906-.656L25.5 19c.29-.215.578-.434.875-.656.953-1.29.785-2.285.625-3.844-.45-1.152-.45-1.152-1-2zm0 0" style="stroke:none;fill-rule:nonzero;fill:#f4af40;fill-opacity:1"/><path d="M8.5 11.5c-.3.215-.598.434-.906.656C6.07 13.332 5.07 14.395 4 16H3c-.164.496-.328.988-.5 1.5h-1c-.246-3.187-.246-3.187.938-4.687C4.512 11.227 5.945 11.457 8.5 11.5m0 0" style="stroke:none;fill-rule:nonzero;fill:#672683;fill-opacity:1"/><path d="m4 15.5.438.906C5.289 18.066 5.93 18.953 7.5 20c-.496.246-.496.246-1 .5-.164.496-.328.988-.5 1.5-1.566-.168-2-.5-3.094-1.687C2 19 2 19 1.5 17.5c.824-.66 1.648-1.32 2.5-2m0 0" style="stroke:none;fill-rule:nonzero;fill:#7e2481;fill-opacity:1"/><path d="M26.563 9.969 28 10.5c-.496.66-.988 1.32-1.5 2-1.32-.164-2.64-.328-4-.5.328-.164.66-.328 1-.5.164-.496.328-.988.5-1.5 1-.5 1-.5 2.563-.031m0 0" style="stroke:none;fill-rule:nonzero;fill:#f26928;fill-opacity:1"/><path d="M6 12a51 51 0 0 1-2 2.5H3c-.164.496-.328.988-.5 1.5h-1c.094-1.406.094-1.406.5-3 2.031-1.656 2.031-1.656 4-1m0 0" style="stroke:none;fill-rule:nonzero;fill:#592684;fill-opacity:1"/><path d="M27.5 11c.66.328 1.32.66 2 1-.156.938-.156.938-.5 2-.496.328-.988.66-1.5 1-.496-.824-.988-1.648-1.5-2.5zm0 0" style="stroke:none;fill-rule:nonzero;fill:#f89934;fill-opacity:1"/><path d="M4.5 19q1.506.216 3 .5L6 22c-.66-.164-1.32-.328-2-.5 0-2 0-2 .5-2.5m0 0" style="stroke:none;fill-rule:nonzero;fill:#b9217d;fill-opacity:1"/><path d="M6.5 20h2c-.164.66-.328 1.32-.5 2-.66.164-1.32.328-2 .5.164-.824.328-1.648.5-2.5m0 0" style="stroke:none;fill-rule:nonzero;fill:#d81f7a;fill-opacity:1"/><path d="M4 17.5h1c.164.496.328.988.5 1.5L3 20.5c0-2 0-2 1-3m0 0" style="stroke:none;fill-rule:nonzero;fill:#98237e;fill-opacity:1"/><path d="M26.5 10c.496.164.988.328 1.5.5-.625 1-.625 1-1.5 2h-2v-1H26c.164-.496.328-.988.5-1.5m0 0" style="stroke:none;fill-rule:nonzero;fill:#f57d2d;fill-opacity:1"/><path d="M4.5 11.5c.328.164.66.328 1 .5-.496.164-.988.328-1.5.5-.164.496-.328.988-.5 1.5-1.031.594-1.031.594-2 1 .094-.906.094-.906.5-2 1.219-.906 1.219-.906 2.5-1.5m0 0" style="stroke:none;fill-rule:nonzero;fill:#4b3d94;fill-opacity:1"/></svg>
